X:1
T:Title
%%score { ( 1 4 ) | ( 2 3 ) }
L:1/8
M:6/8
K:Eb
V:1 treble nm="Grand Piano"
V:4 treble 
V:2 bass 
V:3 bass 
V:1
 z3 z2[Q:1/4=78] [EG]/[FA]/ | [GB][GB][GB] [Ac][GB][_G=A] | [GB][GB][GB] G2 E | %3
 [DF][DF][DF] [DB][DF][FA] | [EG]3- [EG]2 [GB] | ccc c2 c | [ce]d[EAc] [EGB]2 [=A,E]/[A,EF]/ | %7
 [B,EG][B,GB][B,EG] [A,DF][B,DG][A,DF] | [G,E]6 | .[GB]6 | [GB]6 | .[Ac]6 | .[GB]6 | .[Ge]6 | %14
 [GB]6 | [B,EG][B,GB][B,EG] [A,DF][B,DG][A,DF] |[M:5/8] [G,E]-[G,E]- [G,E]3 |] %17
V:2
 z3 z2 [E,B,] | [E,E][E,E][E,E] [E,E][E,E][E,E] | [E,E][E,E][E,E] [E,B,E]2 [E,G,] | %3
 [B,,B,][B,,B,][B,,B,] [B,,B,][B,,B,][B,,B,] | [E,B,]3- [E,B,]2 [E,E] | %5
 [A,EA][A,EA][A,EA] [A,EA]2 [A,EA] | .[A,E]3[K:bass] z3 | B,,B,,B,, B,,B,,B,, | E,6 | %9
 E,E,E, E,[K:treble]EF | E,E,E, .E,3 | [A,,A,][C,A,][E,A,] A,[K:treble]FA | E,E,E, .E,3 | %13
 E,G,B, E,[K:treble]BA | E,G,B, E,2 C,/C,/ | B,,B,,B,, B,,B,,B,, |[M:5/8] E,-E,- E,3 |] %17
V:3
 x6 | x6 | x6 | x6 | x6 | x6 | z B[K:bass]A, E,2 C,/C,/ | x6 | x6 | x4[K:treble] x2 | x6 | %11
 x4[K:treble] x2 | x6 | x4[K:treble] x2 | x6 | x6 |[M:5/8] x5 |] %17
V:4
 x6 | x6 | x6 | x6 | x6 | x6 | x6 | x6 | x6 | z G,B, EGA | z G,B, .E3 | EEE EAc | z G,B, .E3 | %13
 EEE Edc | EEE E2 [=A,E]/[A,EF]/ | x6 |[M:5/8] x5 |] %17

